TGDH.Web/assets/img/icons/grid-small.svg

<svg width="28" height="28" viewBox="0 0 28 28" xmlns="http://www.w3.org/2000/svg"><title>grid</title><path d="M.8 7.2h6.4V.8H.8v6.4zM0 0h8v8H0V0zm10.8 7.2h6.4V.8h-6.4v6.4zM10 0h8v8h-8V0zm10.8.8v6.4h6.4V.8h-6.4zM20 0h8v8h-8V0zM.8 17.2h6.4v-6.4H.8v6.4zM0 10h8v8H0v-8zm10.8 7.2h6.4v-6.4h-6.4v6.4zM10 10h8v8h-8v-8zm10.8.8v6.4h6.4v-6.4h-6.4zM20 10h8v8h-8v-8zM.8 27.2h6.4v-6.4H.8v6.4zM0 20h8v8H0v-8zm10.8 7.2h6.4v-6.4h-6.4v6.4zM10 20h8v8h-8v-8zm10.8.8v6.4h6.4v-6.4h-6.4zM20 20h8v8h-8v-8z"/></svg>

<?xml version="1.0" encoding="UTF-8"?>
<svg width="28px" height="28px" viewBox="0 0 28 28" version="1.1" xmlns="http://www.w3.org/2000/svg" xmlns:xlink="http://www.w3.org/1999/xlink">
    <!-- Generator: Sketch 43.1 (39012) - http://www.bohemiancoding.com/sketch -->
    <title>grid</title>
    <desc>Created with Sketch.</desc>
    <defs></defs>
    <g id="Page-1" stroke="none" stroke-width="1" fill="none" fill-rule="evenodd">
        <g id="grid" fill-rule="nonzero" fill="#000000">
            <path d="M0.8,7.2 L7.2,7.2 L7.2,0.8 L0.8,0.8 L0.8,7.2 Z M0,0 L8,0 L8,8 L0,8 L0,0 Z" id="Rectangle"></path>
            <path d="M10.8,7.2 L17.2,7.2 L17.2,0.8 L10.8,0.8 L10.8,7.2 Z M10,0 L18,0 L18,8 L10,8 L10,0 Z" id="Rectangle"></path>
            <path d="M20.8,0.8 L20.8,7.2 L27.2,7.2 L27.2,0.8 L20.8,0.8 Z M20,0 L28,0 L28,8 L20,8 L20,0 Z" id="Rectangle"></path>
            <path d="M0.8,17.2 L7.2,17.2 L7.2,10.8 L0.8,10.8 L0.8,17.2 Z M0,10 L8,10 L8,18 L0,18 L0,10 Z" id="Rectangle"></path>
            <path d="M10.8,17.2 L17.2,17.2 L17.2,10.8 L10.8,10.8 L10.8,17.2 Z M10,10 L18,10 L18,18 L10,18 L10,10 Z" id="Rectangle"></path>
            <path d="M20.8,10.8 L20.8,17.2 L27.2,17.2 L27.2,10.8 L20.8,10.8 Z M20,10 L28,10 L28,18 L20,18 L20,10 Z" id="Rectangle"></path>
            <path d="M0.8,27.2 L7.2,27.2 L7.2,20.8 L0.8,20.8 L0.8,27.2 Z M0,20 L8,20 L8,28 L0,28 L0,20 Z" id="Rectangle"></path>
            <path d="M10.8,27.2 L17.2,27.2 L17.2,20.8 L10.8,20.8 L10.8,27.2 Z M10,20 L18,20 L18,28 L10,28 L10,20 Z" id="Rectangle"></path>
            <path d="M20.8,20.8 L20.8,27.2 L27.2,27.2 L27.2,20.8 L20.8,20.8 Z M20,20 L28,20 L28,28 L20,28 L20,20 Z" id="Rectangle"></path>
        </g>
    </g>
</svg>
